X:18630
T:Whalen's Breakdown
M:2/4
L:1/16
C:Don Messer
R:Breakdown
Z:<cfalt@trytel.com> www.trytel.com/~cfalt/Fiddle/CFtunes1.abc
K:C
e>f|"C"g2^f2 a2g2|gage c2dc|"G7"B2G2 A2B2|"C"cBcd e2ef|!
g2^f2 a2g2|gage c2dc|"G7"B2G2 A2B2|"C"c4-c2:|!
|:G>F|"C"E2C2 D2E2|"F"FEFG A2dc|"G7"B2G2 A2B2|"C"cBcd e2GF|!
E2C2 D2E2|"F"FEFG A2dc|"G7"B2G2 A2B2|"C"c4-c2:|]
% Output from ABC2Win  Version 2.1 f on 11/30/97


